X:055 
T:Fat of the Land* (reel), The
S:Grier MS
F:file ID: cre.4/055fat_L
B:CRE4.190: gan ainm
L:1/8
Q:180
M:4/4
R:reel
K:D
AFDF A2Bc|dBcA BcdB|AFDF A2BA|dBAG FDD2:|
a2 fe d3c|d2 fa ge~e2|a2 fe d2fa|g2 eg fd d2|
a2 fe d3c|d2 fa ge~e2|afge fdec|dBAG FDD2 ||

%%%

